X: 26045
T: McBride's
R: reel
M: 4/4
K: Bminor
A|Bgf gedBe|efed BAdc|Bgfg edBd|dcdc BAdc|
Bgfg edBe|efed efge|egfd BGdc|BAFA BAdc/=c/||
Bgf gedBe|efed BAdc|Bgfg edBd|dcdc BAdc|
Bgfg edBe|efed ef(fg)|egfd BGdc|BAFA BAdc||
Bgf gedBe|efed BAdc|Bgfg edBd|dcdc BAd=c|
Bgfg edB/=c/d|efed efge|egfd BGdc|BAFA BAdc||
Bgf gedBe|efed BAdc|Bgfg edBd|dcdc BAdc|
Bgfg edBe|efed efgg|egfd BGdc|BAFA BAdc||
Beef edBA|d3ef3a|gefg edBG|dcBA BG(e2|
e)gf/e/de dBA|ddde fffa|gBeg fdBG|dcBA BG(e2|
e)gfd edBA|ddde fffa|gefd edBG|dcBA BG(e2|
e)gfd edBA|ddde fffa|gb/B/eg fdBG|dcBA FAdc||
|:b2gbab (3gfe|f>ed>Bd>ef>a|b2gbab (3gfe|b>c' (3d'c'b e'>d'c'>a|
b2gbab (3gfe|f>ed>Bd>ef>a|(3gag egfdBc|1 dcBG Aee a:|2 dcBA FAdc||

